public/svgs/mood-relief.svg

<svg width="95" height="63" viewBox="0 0 95 63" fill="none" xmlns="http://www.w3.org/2000/svg">
<mask id="mask0_2608_26033" style="mask-type:alpha" maskUnits="userSpaceOnUse" x="0" y="0" width="95" height="63">
<rect width="95" height="63" fill="#F2F2F2"/>
</mask>
<g mask="url(#mask0_2608_26033)">
<g style="mix-blend-mode:overlay" opacity="0.5" filter="url(#filter0_f_2608_26033)">
<path fill-rule="evenodd" clip-rule="evenodd" d="M63.7022 35.1885C69.3396 32.5795 72.9314 28.6364 72.9314 24.2241C72.9314 16.3684 61.5455 10 47.5004 10C33.4552 10 22.0693 16.3684 22.0693 24.2241C22.0693 28.6364 25.6612 32.5795 31.2986 35.1885C21.6569 37.6503 15.1729 42.242 15.1729 47.5C15.1729 52.8954 21.9999 57.5891 32.0604 60H22.5C15.5964 60 10 65.5964 10 72.5C10 79.4036 15.5964 85 22.5 85H72.5C79.4036 85 85 79.4036 85 72.5C85 65.5964 79.4036 60 72.5 60H62.9405C73.001 57.5891 79.828 52.8954 79.828 47.5C79.828 42.242 73.344 37.6503 63.7022 35.1885Z" fill="#121212"/>
</g>
</g>
<defs>
<filter id="filter0_f_2608_26033" x="6" y="6" width="83" height="83" filterUnits="userSpaceOnUse" color-interpolation-filters="sRGB">
<feFlood flood-opacity="0" result="BackgroundImageFix"/>
<feBlend mode="normal" in="SourceGraphic" in2="BackgroundImageFix" result="shape"/>
<feGaussianBlur stdDeviation="2" result="effect1_foregroundBlur_2608_26033"/>
</filter>
</defs>
</svg>

<svg width="95" height="63" fill="none" xmlns="http://www.w3.org/2000/svg"><mask id="a" style="mask-type:alpha" maskUnits="userSpaceOnUse" x="0" y="0" width="95" height="63"><path fill="#F2F2F2" d="M0 0h95v63H0z"/></mask><g style="mix-blend-mode:overlay" opacity=".5" filter="url(#b)" mask="url(#a)"><path fill-rule="evenodd" clip-rule="evenodd" d="M63.702 35.188c5.638-2.608 9.23-6.552 9.23-10.964C72.931 16.368 61.544 10 47.5 10c-14.045 0-25.43 6.368-25.43 14.224 0 4.412 3.591 8.356 9.229 10.964-9.642 2.462-16.126 7.054-16.126 12.312 0 5.395 6.827 10.09 16.887 12.5H22.5C15.596 60 10 65.596 10 72.5S15.596 85 22.5 85h50C79.404 85 85 79.404 85 72.5S79.404 60 72.5 60h-9.56c10.061-2.41 16.888-7.105 16.888-12.5 0-5.258-6.484-9.85-16.126-12.312Z" fill="#121212"/></g><defs><filter id="b" x="6" y="6" width="83" height="83" filterUnits="userSpaceOnUse" color-interpolation-filters="sRGB"><feFlood flood-opacity="0" result="BackgroundImageFix"/><feBlend in="SourceGraphic" in2="BackgroundImageFix" result="shape"/><feGaussianBlur stdDeviation="2" result="effect1_foregroundBlur_2608_26033"/></filter></defs></svg>
